X:359
T: ICH GIENG WOL IN DEN KRETSCHAM
N: E0203D
O: Europa, Mitteleuropa, Deutschland, Schlesien
R: erzaehlendes Volks - Lied, Todes - Ahnung; betrogene Liebe
M: 2/4
L: 1/16
K: Bb
F2 | B2B2c2A2 | B4F2
F2 | G2F2D2B,2 | F4z2
B2 | d2d2d2e2 | f3gf2
e2 | d4c4 | B4z2

@@@ Tune index: 4009
